src/components/ProductFeature/images/icons/api.svg

<svg width="100" height="100" viewBox="0 0 100 100" fill="none" xmlns="http://www.w3.org/2000/svg">
<g clip-path="url(#clip0)">
<path d="M0.000488281 80.3586C0.000488281 85.0667 3.74631 88.8125 8.45443 88.8125H91.5458C96.2539 88.8125 99.9998 85.0667 99.9998 80.3586L99.995 30.6023H0.000602305L0.000488281 80.3586ZM41.3028 56.0813H65.6973C67.0277 56.0813 68.1127 57.1663 68.1127 58.4967C68.1127 59.8271 67.0276 60.9121 65.6973 60.9121H41.3028C39.9724 60.9121 38.8874 59.827 38.8874 58.4967C38.8874 57.171 39.9725 56.0813 41.3028 56.0813V56.0813ZM12.1947 44.7308C11.2276 43.7637 11.2276 42.3154 12.1947 41.3482C13.1618 40.3811 14.6101 40.3811 15.5772 41.3482L31.0371 56.8081C31.5183 57.2893 31.7636 57.8931 31.7636 58.4969C31.7636 59.1007 31.523 59.7046 31.0371 60.1858L15.5772 75.6456C15.096 76.1268 14.4922 76.3721 13.8884 76.3721C13.2846 76.3721 12.6807 76.1315 12.1995 75.6456C11.2324 74.6785 11.2324 73.2302 12.1995 72.2631L25.843 58.4976L12.1947 44.7308Z" fill="black"/>
<path d="M91.5405 12H8.45394C3.74582 12 0 15.7458 0 20.4539V25.7659H99.9993V20.4539C99.9946 15.8637 96.1309 12 91.5406 12H91.5405ZM7.36459 23.1099C5.07188 23.1099 3.26032 21.2984 3.26032 19.0057C3.26032 16.713 5.07188 14.9014 7.36459 14.9014C9.6573 14.9014 11.4689 16.713 11.4689 19.0057C11.4736 21.2984 9.66201 23.1099 7.36459 23.1099V23.1099ZM19.8052 23.1099C17.5125 23.1099 15.7009 21.2984 15.7009 19.0057C15.7009 16.713 17.5125 14.9014 19.8052 14.9014C22.0979 14.9014 23.9094 16.713 23.9094 19.0057C23.9094 21.2984 22.0979 23.1099 19.8052 23.1099ZM32.3629 23.1099C30.0702 23.1099 28.2586 21.2984 28.2586 19.0057C28.2586 16.713 30.0702 14.9014 32.3629 14.9014C34.6556 14.9014 36.4672 16.713 36.4672 19.0057C36.4719 21.2984 34.6603 23.1099 32.3629 23.1099Z" fill="black"/>
</g>
<defs>
<clipPath id="clip0">
<rect width="100" height="100" fill="white"/>
</clipPath>
</defs>
</svg>

<svg fill="none" xmlns="http://www.w3.org/2000/svg" viewBox="0 0 100 100"><g clip-path="url(#clip0)" fill="#A970DC"><path d="M0 80.359a8.404 8.404 0 008.454 8.454h83.092A8.404 8.404 0 00100 80.358l-.005-49.757H.001V80.36zM41.303 56.08h24.394a2.42 2.42 0 012.416 2.416 2.42 2.42 0 01-2.416 2.415H41.303a2.42 2.42 0 01-2.416-2.415 2.423 2.423 0 012.416-2.416zm-29.108-11.35c-.967-.967-.967-2.416 0-3.383.967-.967 2.415-.967 3.382 0l15.46 15.46c.481.481.727 1.085.727 1.689 0 .604-.241 1.208-.727 1.689l-15.46 15.46c-.481.48-1.085.726-1.689.726-.603 0-1.207-.24-1.688-.726-.968-.968-.968-2.416 0-3.383l13.643-13.765L12.195 44.73zM91.54 12H8.454A8.404 8.404 0 000 20.454v5.312h100v-5.312C99.994 15.864 96.13 12 91.54 12zM7.365 23.11a4.071 4.071 0 01-4.105-4.104A4.071 4.071 0 017.365 14.9a4.072 4.072 0 014.104 4.105c.005 2.292-1.807 4.104-4.104 4.104zm12.44 0a4.071 4.071 0 01-4.104-4.104 4.072 4.072 0 014.104-4.105 4.071 4.071 0 014.104 4.105 4.071 4.071 0 01-4.104 4.104zm12.558 0a4.071 4.071 0 01-4.104-4.104 4.072 4.072 0 014.104-4.105 4.072 4.072 0 014.104 4.105c.005 2.292-1.807 4.104-4.104 4.104z"/></g><defs><clipPath id="clip0"><path fill="A970DC" d="M0 0h100v100H0z"/></clipPath></defs></svg>
